X: 837
T: Gidem Dedim Yâre
C: (Anonim)
O: Turkey
F: http://compmusic.upf.edu/node/140
N: hicaz-humayun--turku--devrituran--gidem_dedim--rumeli
N: makam= hicaz-humayun
N: form= turku
N: usul= devrituran = 7/16
M: 7/16
L: 1/16
K: C _7/8B ^c  
Q: 1/4=300
%%MIDI tuningsystem comma53
^F2 G2 F2 G2 A4 G2  | A2 B2 A2 B2 c4 B2  | \
w:  ARANAĞME  |   | 
d4 d2 c2 B2 A2 G2  | d4 c2 e2 d6  | 
w:   |   | 
^F2 G2 F2 G2 A4 G2  | A2 B2 A2 B2 c4 B2  | \
w:  ARANAĞME  |   | 
d4 d2 c2 B2 A2 G2  | A4 A4 A4 z2  | 
w:   |   | 
A4 A4 A2 A2 A2  | A4 A4 A2 A2 A2  | A4 A4 A2 A2 A2  | \
w:   |   |   | 
A4 A4 A2 A2 A2  | A4 d4 d6  | 
w:   |  Gi dem  de  | 
d4 e2 f2 d4 z2  | d4 a4 a4 g2  | g2 f2 e2 d2 e4 g2  | \
w:  dim  a *  man   |  yâ ren le  |  rim  *  *  *  da  | 
f2 e2 d2 c2 d6  | A4 B2 A2 G6  | 
w:  rıl *  *  *  dı    |  SAZ  | 
A4 d4 d6  | d4 e2 f2 d4 z2  | d4 a4 a4 g2  | \
w:  Gi dem  de  |  dim  a *  man   |  yâ ren le  | 
g2 f2 e2 d2 e4 g2  | f2 e2 d2 c2 d6  | 
w:  rim  *  *  *  da  |  rıl *  *  *  dı    | 
A4 B2 c2 d6  | d4 a4 a4 g2  | g4 f2 e2 d4 z2  | \
w:  SAZ  |  Git mem  de  |  dim   | 
f4 f4 f2 e2 d2  | d2 c2 B2 A2 c2 d2 e2  | 
w:  yâr  boy nu  |  ma  *  *  *  sa  | 
d2 c2 B2 A8  | A8 A4 G2  | ^F4 G4 A6  | \
w:  *  *  *  rıl  |  *  dı    |  Git mem  de  | 
A8 z6  | f4 f4 f2 e2 d2  | d2 c2 B2 A2 c2 d2 e2  | 
w:  dim   |  yâr  boy nu  |  ma  *  *  *  sa  | 
d2 c2 B2 A8  | A12 G2  | c4 B2 A2 A6  | \
w:  *  *  *  rıl  |   |  *  *  *  dı    | 
^F2 G2 F2 G2 A4 G2  | A2 B2 A2 B2 c4 B2  | 
w:  ARANAĞME  |   | 
d4 d2 c2 B2 A2 G2  | d4 c2 e2 d6  | ^F2 G2 F2 G2 A4 G2  | \
w:   |   |  ARANAĞME  | 
A2 B2 A2 B2 c4 B2  | 
w:   | 
d4 d2 c2 B2 A2 G2  | A4 A4 A4 z2  | A4 A4 A2 A2 A2  | \
w:   |   |   | 
A4 A4 A2 A2 A2  | A4 A4 A2 A2 A2  | 
w:   |   | 
A4 A4 A2 A2 A2  | G4 d4 d6  | d4 e2 f2 d4 z2  | \
w:   |  Bi ze  kıs  |  met  a *  man   | 
d4 a4 a4 g2  | g2 f2 e2 d2 e4 g2  | 
w:  gur bet  el  |  de  *  *  *  ve  | 
f2 e2 d2 c2 d6  | A4 B2 A2 G6  | G4 d4 d6  | \
w:  ril *  *  *  di    |  SAZ  |  Bi ze  kıs  | 
d4 e2 f2 d4 z2  | d4 a4 a4 g2  | 
w:  met  a *  man   |  gur bet  el  | 
g2 f2 e2 d2 e4 g2  | f2 e2 d2 c2 d6  | \
w:  de  *  *  *  ve  |  ril *  *  *  di    | 
A4 B2 c2 d6  | d4 a4 a4 g2  | g4 f2 e2 d4 z2  | 
w:  SAZ  |  Bu  ay rı  |  lık   | 
f4 f4 f2 e2 d2  | d2 c2 B2 A2 c2 d2 e2  | \
w:  ya man  bük  |  tü  *  *  *  be  | 
d2 c2 B2 A8  | A8 A4 G2  | ^F4 G4 A6  | 
w:  *  *  *  li  |  *  mi    |  Ya ra dan   | 
A8 z6  | f4 f4 f2 e2 d2  | d2 c2 B4 c2 d2 e2  | \
w:  Hak   |  sen  bi lir  |  sin  *  *  hâ  | 
d2 c2 B2 A2 A6  | A12 G2  | c4 B2 A2 A6  | 
w:  *  *  *  *  li  |   |  *  *  *  mi    | 
|


